icons/af.svg

<?xml version="1.0" ?>
<svg xmlns="http://www.w3.org/2000/svg" xmlns:ev="http://www.w3.org/2001/xml-events" xmlns:xlink="http://www.w3.org/1999/xlink" baseProfile="full" height="454px" version="1.1" viewBox="-1025.9835996497454 470.88236611280706 12292.556597037423 9298.235267774386" width="600px">
	<defs/>
	<path d="M 7350.0,8957.0 L 7275.0,8924.0 L 7233.0,8845.0 C 7210.0,8801.0 7190.0,8754.0 7190.0,8740.0 C 7189.0,8722.0 7174.0,8703.0 7139.0,8676.0 C 7104.0,8648.0 7086.0,8625.0 7078.0,8597.0 C 7069.0,8567.0 7055.0,8551.0 7013.0,8524.0 C 6951.0,8485.0 6947.0,8465.0 6980.0,8378.0 C 6991.0,8348.0 7000.0,8301.0 7000.0,8269.0 C 7000.0,8216.0 6999.0,8213.0 6966.0,8197.0 C 6942.0,8186.0 6930.0,8172.0 6925.0,8151.0 C 6921.0,8134.0 6915.0,8120.0 6911.0,8120.0 C 6907.0,8120.0 6878.0,8138.0 6847.0,8159.0 L 6791.0,8199.0 L 6698.0,8190.0 C 6647.0,8185.0 6577.0,8180.0 6543.0,8180.0 L 6481.0,8180.0 L 6425.0,8100.0 L 6368.0,8020.0 L 6384.0,7952.0 L 6399.0,7885.0 L 6365.0,7851.0 L 6332.0,7817.0 L 6244.0,7873.0 C 6196.0,7905.0 6152.0,7930.0 6146.0,7930.0 C 6140.0,7929.0 6089.0,7921.0 6032.0,7911.0 C 5949.0,7897.0 5923.0,7888.0 5892.0,7863.0 C 5844.0,7825.0 5816.0,7811.0 5702.0,7770.0 C 5650.0,7752.0 5582.0,7720.0 5549.0,7698.0 C 5516.0,7677.0 5486.0,7660.0 5482.0,7660.0 C 5478.0,7660.0 5435.0,7684.0 5387.0,7713.0 C 5321.0,7753.0 5293.0,7776.0 5277.0,7806.0 C 5259.0,7837.0 5238.0,7854.0 5172.0,7888.0 L 5090.0,7931.0 L 4982.0,7911.0 L 4875.0,7891.0 L 4814.0,7954.0 L 4753.0,8017.0 L 4644.0,8030.0 C 4542.0,8043.0 4525.0,8042.0 4379.0,8021.0 C 4232.0,8000.0 4220.0,7999.0 4169.0,8014.0 C 4126.0,8027.0 4106.0,8040.0 4077.0,8075.0 C 4041.0,8118.0 4037.0,8120.0 3986.0,8120.0 C 3948.0,8120.0 3910.0,8129.0 3860.0,8151.0 C 3820.0,8168.0 3787.0,8180.0 3785.0,8178.0 C 3784.0,8176.0 3757.0,8125.0 3727.0,8064.0 C 3696.0,8003.0 3664.0,7950.0 3655.0,7946.0 C 3646.0,7943.0 3569.0,7940.0 3484.0,7940.0 L 3330.0,7940.0 L 3221.0,7878.0 L 3113.0,7816.0 L 3107.0,7745.0 C 3102.0,7685.0 3093.0,7659.0 3050.0,7579.0 C 3003.0,7489.0 3000.0,7481.0 3000.0,7406.0 C 3000.0,7330.0 2998.0,7323.0 2953.0,7243.0 C 2911.0,7168.0 2896.0,7152.0 2818.0,7094.0 L 2731.0,7028.0 L 2677.0,7035.0 L 2622.0,7042.0 L 2589.0,6980.0 L 2555.0,6918.0 L 2515.0,6927.0 C 2493.0,6931.0 2436.0,6935.0 2388.0,6934.0 C 2315.0,6933.0 2290.0,6928.0 2228.0,6902.0 C 2188.0,6885.0 2099.0,6859.0 2030.0,6844.0 C 1961.0,6829.0 1903.0,6816.0 1901.0,6814.0 C 1899.0,6812.0 1910.0,6780.0 1925.0,6744.0 L 1953.0,6677.0 L 1923.0,6651.0 C 1898.0,6629.0 1891.0,6614.0 1882.0,6556.0 C 1876.0,6519.0 1870.0,6486.0 1868.0,6485.0 C 1866.0,6483.0 1778.0,6439.0 1671.0,6385.0 C 1483.0,6291.0 1475.0,6288.0 1450.0,6303.0 C 1426.0,6318.0 1422.0,6317.0 1370.0,6284.0 C 1340.0,6266.0 1312.0,6250.0 1309.0,6250.0 C 1305.0,6250.0 1306.0,6268.0 1310.0,6291.0 C 1318.0,6331.0 1317.0,6332.0 1229.0,6435.0 L 1140.0,6539.0 L 1074.0,6517.0 C 1010.0,6495.0 1005.0,6495.0 891.0,6508.0 L 774.0,6523.0 L 716.0,6611.0 C 666.0,6689.0 656.0,6700.0 630.0,6700.0 C 565.0,6700.0 556.0,6690.0 526.0,6579.0 C 510.0,6522.0 487.0,6449.0 474.0,6418.0 C 461.0,6386.0 450.0,6343.0 450.0,6321.0 C 450.0,6299.0 439.0,6251.0 426.0,6214.0 C 405.0,6156.0 402.0,6137.0 407.0,6055.0 L 413.0,5961.0 L 360.0,5891.0 C 312.0,5829.0 300.0,5819.0 238.0,5795.0 C 201.0,5780.0 170.0,5765.0 170.0,5762.0 C 170.0,5743.0 213.0,5689.0 253.0,5656.0 C 292.0,5624.0 297.0,5616.0 291.0,5592.0 C 284.0,5566.0 282.0,5565.0 191.0,5560.0 L 97.0,5555.0 L 54.0,5505.0 C 5.0,5450.0 4.0,5442.0 20.0,5300.0 C 28.0,5231.0 27.0,5205.0 14.0,5158.0 C -2.0,5103.0 -2.0,5099.0 20.0,5047.0 L 43.0,4992.0 L 134.0,4966.0 C 217.0,4942.0 260.0,4917.0 260.0,4890.0 C 260.0,4885.0 234.0,4861.0 201.0,4835.0 C 159.0,4802.0 138.0,4776.0 126.0,4747.0 C 117.0,4723.0 87.0,4682.0 60.0,4655.0 C 16.0,4612.0 10.0,4601.0 10.0,4565.0 C 10.0,4543.0 49.0,4365.0 96.0,4170.0 C 187.0,3788.0 186.0,3799.0 154.0,3653.0 L 137.0,3582.0 L 167.0,3527.0 L 197.0,3471.0 L 169.0,3444.0 C 141.0,3417.0 140.0,3414.0 140.0,3310.0 L 140.0,3203.0 L 407.0,3121.0 C 702.0,3030.0 762.0,3000.0 775.0,2938.0 C 779.0,2921.0 795.0,2886.0 811.0,2860.0 L 839.0,2814.0 L 824.0,2705.0 C 810.0,2604.0 806.0,2594.0 772.0,2555.0 C 752.0,2532.0 647.0,2416.0 540.0,2296.0 L 345.0,2078.0 L 325.0,1999.0 C 306.0,1925.0 301.0,1917.0 236.0,1850.0 C 197.0,1812.0 168.0,1779.0 171.0,1776.0 C 173.0,1774.0 417.0,1675.0 712.0,1555.0 L 1249.0,1338.0 L 1537.0,1349.0 C 1695.0,1355.0 1866.0,1365.0 1916.0,1371.0 C 1999.0,1382.0 2020.0,1381.0 2186.0,1355.0 C 2349.0,1329.0 2368.0,1324.0 2399.0,1298.0 C 2430.0,1270.0 2470.0,1250.0 2491.0,1250.0 C 2496.0,1250.0 2500.0,1265.0 2500.0,1284.0 C 2500.0,1310.0 2510.0,1328.0 2542.0,1363.0 C 2587.0,1410.0 2642.0,1435.0 2768.0,1463.0 L 2830.0,1477.0 L 3021.0,1424.0 L 3212.0,1370.0 L 3661.0,1512.0 L 4111.0,1654.0 L 4136.0,1697.0 L 4161.0,1740.0 L 4116.0,1794.0 L 4070.0,1847.0 L 4110.0,1980.0 C 4132.0,2053.0 4150.0,2118.0 4150.0,2123.0 C 4150.0,2129.0 4139.0,2148.0 4125.0,2166.0 C 4111.0,2184.0 4100.0,2205.0 4100.0,2212.0 C 4100.0,2219.0 4123.0,2293.0 4150.0,2376.0 L 4201.0,2528.0 L 4260.0,2544.0 C 4312.0,2559.0 4320.0,2564.0 4330.0,2595.0 C 4336.0,2613.0 4348.0,2634.0 4357.0,2642.0 C 4366.0,2649.0 4390.0,2678.0 4411.0,2706.0 C 4463.0,2777.0 4581.0,2850.0 4643.0,2850.0 L 4688.0,2850.0 L 4699.0,2804.0 C 4710.0,2762.0 4713.0,2759.0 4738.0,2764.0 C 4753.0,2767.0 4821.0,2777.0 4890.0,2785.0 C 5014.0,2801.0 5204.0,2851.0 5227.0,2873.0 C 5233.0,2880.0 5240.0,2894.0 5242.0,2905.0 C 5245.0,2922.0 5236.0,2926.0 5172.0,2936.0 C 5099.0,2947.0 5080.0,2958.0 5080.0,2991.0 C 5080.0,3007.0 5207.0,3066.0 5306.0,3096.0 C 5357.0,3111.0 5460.0,3213.0 5473.0,3261.0 C 5480.0,3288.0 5484.0,3290.0 5530.0,3290.0 C 5573.0,3290.0 5582.0,3286.0 5601.0,3261.0 C 5616.0,3240.0 5639.0,3227.0 5683.0,3215.0 C 5717.0,3206.0 5750.0,3196.0 5757.0,3193.0 C 5767.0,3189.0 5770.0,3197.0 5768.0,3220.0 C 5765.0,3250.0 5768.0,3254.0 5804.0,3266.0 L 5843.0,3280.0 L 5879.0,3238.0 C 5899.0,3214.0 5933.0,3176.0 5955.0,3152.0 L 5995.0,3109.0 L 6066.0,3116.0 L 6136.0,3123.0 L 6233.0,3297.0 L 6330.0,3471.0 L 6330.0,3669.0 L 6330.0,3868.0 L 6409.0,3942.0 L 6489.0,4016.0 L 6465.0,4057.0 L 6442.0,4099.0 L 6475.0,4142.0 L 6509.0,4185.0 L 6491.0,4257.0 L 6472.0,4328.0 L 6520.0,4354.0 C 6553.0,4372.0 6588.0,4381.0 6641.0,4385.0 C 6682.0,4388.0 6779.0,4408.0 6856.0,4428.0 L 6998.0,4465.0 L 7039.0,4547.0 C 7062.0,4593.0 7080.0,4633.0 7080.0,4636.0 C 7080.0,4639.0 7053.0,4670.0 7020.0,4704.0 C 6951.0,4776.0 6941.0,4815.0 6978.0,4867.0 C 7007.0,4907.0 7006.0,4910.0 6968.0,4910.0 C 6950.0,4910.0 6906.0,4923.0 6871.0,4938.0 L 6807.0,4965.0 L 6779.0,5040.0 C 6748.0,5120.0 6748.0,5131.0 6784.0,5172.0 C 6803.0,5194.0 6818.0,5199.0 6857.0,5201.0 C 6899.0,5202.0 6919.0,5194.0 7012.0,5143.0 L 7120.0,5084.0 L 7247.0,5097.0 C 7357.0,5108.0 7551.0,5150.0 7577.0,5169.0 C 7582.0,5172.0 7608.0,5207.0 7637.0,5245.0 C 7679.0,5303.0 7689.0,5327.0 7699.0,5383.0 L 7711.0,5452.0 L 7670.0,5506.0 C 7635.0,5552.0 7630.0,5566.0 7630.0,5611.0 C 7630.0,5655.0 7635.0,5669.0 7663.0,5704.0 C 7683.0,5729.0 7705.0,5774.0 7718.0,5819.0 C 7730.0,5860.0 7741.0,5894.0 7742.0,5896.0 C 7744.0,5897.0 7805.0,5928.0 7878.0,5964.0 C 7950.0,6000.0 8010.0,6033.0 8010.0,6038.0 C 8009.0,6042.0 8005.0,6064.0 8001.0,6087.0 C 7994.0,6125.0 7995.0,6131.0 8021.0,6156.0 L 8050.0,6184.0 L 8023.0,6212.0 C 7997.0,6239.0 7997.0,6241.0 8010.0,6293.0 C 8022.0,6345.0 8021.0,6352.0 7992.0,6441.0 C 7973.0,6499.0 7959.0,6568.0 7954.0,6622.0 L 7948.0,6709.0 L 7891.0,6749.0 C 7860.0,6770.0 7811.0,6813.0 7781.0,6843.0 L 7728.0,6898.0 L 7849.0,7067.0 C 7915.0,7160.0 7977.0,7243.0 7987.0,7252.0 C 8004.0,7267.0 8013.0,7266.0 8099.0,7239.0 C 8151.0,7223.0 8195.0,7211.0 8196.0,7213.0 C 8198.0,7215.0 8210.0,7253.0 8223.0,7298.0 C 8236.0,7344.0 8250.0,7383.0 8253.0,7386.0 C 8256.0,7389.0 8294.0,7397.0 8337.0,7402.0 C 8429.0,7415.0 8445.0,7424.0 8565.0,7541.0 L 8655.0,7628.0 L 8936.0,7643.0 C 9090.0,7651.0 9234.0,7655.0 9257.0,7651.0 C 9289.0,7645.0 9313.0,7649.0 9371.0,7670.0 L 9445.0,7697.0 L 9592.0,7647.0 L 9738.0,7597.0 L 9780.0,7630.0 C 9812.0,7655.0 9843.0,7668.0 9906.0,7682.0 C 9993.0,7701.0 10060.0,7733.0 10060.0,7756.0 C 10060.0,7763.0 10046.0,7807.0 10030.0,7852.0 C 10008.0,7910.0 10001.0,7945.0 10005.0,7967.0 C 10012.0,8007.0 10022.0,8013.0 10055.0,7998.0 C 10078.0,7988.0 10084.0,7990.0 10113.0,8017.0 L 10145.0,8048.0 L 10183.0,8029.0 L 10220.0,8009.0 L 10232.0,8035.0 C 10242.0,8057.0 10240.0,8064.0 10221.0,8084.0 C 10190.0,8117.0 10117.0,8137.0 10085.0,8120.0 C 10065.0,8109.0 10058.0,8111.0 10027.0,8134.0 C 9998.0,8156.0 9983.0,8160.0 9925.0,8160.0 C 9866.0,8160.0 9852.0,8156.0 9831.0,8136.0 C 9815.0,8122.0 9772.0,8104.0 9720.0,8090.0 C 9673.0,8078.0 9600.0,8055.0 9557.0,8039.0 C 9462.0,8004.0 9450.0,8003.0 9478.0,8033.0 C 9497.0,8054.0 9499.0,8061.0 9489.0,8088.0 C 9479.0,8117.0 9474.0,8120.0 9439.0,8120.0 C 9418.0,8120.0 9382.0,8127.0 9361.0,8136.0 C 9323.0,8151.0 9315.0,8151.0 9208.0,8125.0 C 9146.0,8111.0 9087.0,8097.0 9078.0,8094.0 C 9069.0,8091.0 9055.0,8070.0 9047.0,8047.0 L 9034.0,8005.0 L 8968.0,7996.0 C 8905.0,7987.0 8903.0,7986.0 8869.0,7937.0 C 8850.0,7909.0 8809.0,7858.0 8777.0,7824.0 L 8720.0,7762.0 L 8637.0,7750.0 C 8592.0,7743.0 8546.0,7734.0 8535.0,7730.0 C 8524.0,7726.0 8445.0,7665.0 8360.0,7595.0 C 8176.0,7443.0 8181.0,7446.0 8106.0,7430.0 L 8048.0,7418.0 L 8003.0,7462.0 C 7949.0,7514.0 7881.0,7630.0 7844.0,7727.0 C 7819.0,7797.0 7818.0,7803.0 7829.0,7882.0 C 7836.0,7928.0 7853.0,7996.0 7867.0,8033.0 L 7894.0,8101.0 L 7873.0,8143.0 C 7844.0,8205.0 7852.0,8307.0 7891.0,8369.0 C 7912.0,8401.0 7920.0,8427.0 7920.0,8458.0 C 7920.0,8498.0 7918.0,8501.0 7898.0,8494.0 C 7885.0,8491.0 7863.0,8481.0 7848.0,8474.0 C 7833.0,8466.0 7798.0,8460.0 7771.0,8460.0 C 7723.0,8460.0 7721.0,8461.0 7712.0,8493.0 C 7705.0,8516.0 7707.0,8551.0 7716.0,8601.0 C 7723.0,8642.0 7729.0,8702.0 7729.0,8736.0 L 7730.0,8796.0 L 7655.0,8839.0 C 7613.0,8862.0 7547.0,8906.0 7508.0,8936.0 C 7469.0,8966.0 7434.0,8990.0 7431.0,8990.0 C 7428.0,8990.0 7391.0,8975.0 7350.0,8957.0" fill="pink"/>
</svg>

<?xml version="1.0" standalone="no"?>
<!DOCTYPE svg PUBLIC "-//W3C//DTD SVG 20010904//EN"
 "http://www.w3.org/TR/2001/REC-SVG-20010904/DTD/svg10.dtd">
<svg version="1.0" xmlns="http://www.w3.org/2000/svg"
 width="1024.000000pt" height="1024.000000pt" viewBox="0 0 1024.000000 1024.000000"
 preserveAspectRatio="xMidYMid meet">
<metadata>
Created by potrace 1.10, written by Peter Selinger 2001-2011
</metadata>
<g transform="translate(0.000000,1024.000000) scale(0.100000,-0.100000)"
fill="#000000" stroke="none">
<path d="M7350 8957 l-75 -33 -42 -79 c-23 -44 -43 -91 -43 -105 -1 -18 -16
-37 -51 -64 -35 -28 -53 -51 -61 -79 -9 -30 -23 -46 -65 -73 -62 -39 -66 -59
-33 -146 11 -30 20 -77 20 -109 0 -53 -1 -56 -34 -72 -24 -11 -36 -25 -41 -46
-4 -17 -10 -31 -14 -31 -4 0 -33 18 -64 39 l-56 40 -93 -9 c-51 -5 -121 -10
-155 -10 l-62 0 -56 -80 -57 -80 16 -68 15 -67 -34 -34 -33 -34 -88 56 c-48
32 -92 57 -98 57 -6 -1 -57 -9 -114 -19 -83 -14 -109 -23 -140 -48 -48 -38
-76 -52 -190 -93 -52 -18 -120 -50 -153 -72 -33 -21 -63 -38 -67 -38 -4 0 -47
24 -95 53 -66 40 -94 63 -110 93 -18 31 -39 48 -105 82 l-82 43 -108 -20 -107
-20 -61 63 -61 63 -109 13 c-102 13 -119 12 -265 -9 -147 -21 -159 -22 -210
-7 -43 13 -63 26 -92 61 -36 43 -40 45 -91 45 -38 0 -76 9 -126 31 -40 17 -73
29 -75 27 -1 -2 -28 -53 -58 -114 -31 -61 -63 -114 -72 -118 -9 -3 -86 -6
-171 -6 l-154 0 -109 -62 -108 -62 -6 -71 c-5 -60 -14 -86 -57 -166 -47 -90
-50 -98 -50 -173 0 -76 -2 -83 -47 -163 -42 -75 -57 -91 -135 -149 l-87 -66
-54 7 -55 7 -33 -62 -34 -62 -40 9 c-22 4 -79 8 -127 7 -73 -1 -98 -6 -160
-32 -40 -17 -129 -43 -198 -58 -69 -15 -127 -28 -129 -30 -2 -2 9 -34 24 -70
l28 -67 -30 -26 c-25 -22 -32 -37 -41 -95 -6 -37 -12 -70 -14 -71 -2 -2 -90
-46 -197 -100 -188 -94 -196 -97 -221 -82 -24 15 -28 14 -80 -19 -30 -18 -58
-34 -61 -34 -4 0 -3 18 1 41 8 40 7 41 -81 144 l-89 104 -66 -22 c-64 -22 -69
-22 -183 -9 l-117 15 -58 88 c-50 78 -60 89 -86 89 -65 0 -74 -10 -104 -121
-16 -57 -39 -130 -52 -161 -13 -32 -24 -75 -24 -97 0 -22 -11 -70 -24 -107
-21 -58 -24 -77 -19 -159 l6 -94 -53 -70 c-48 -62 -60 -72 -122 -96 -37 -15
-68 -30 -68 -33 0 -19 43 -73 83 -106 39 -32 44 -40 38 -64 -7 -26 -9 -27
-100 -32 l-94 -5 -43 -50 c-49 -55 -50 -63 -34 -205 8 -69 7 -95 -6 -142 -16
-55 -16 -59 6 -111 l23 -55 91 -26 c83 -24 126 -49 126 -76 0 -5 -26 -29 -59
-55 -42 -33 -63 -59 -75 -88 -9 -24 -39 -65 -66 -92 -44 -43 -50 -54 -50 -90
0 -22 39 -200 86 -395 91 -382 90 -371 58 -517 l-17 -71 30 -55 30 -56 -28
-27 c-28 -27 -29 -30 -29 -134 l0 -107 267 -82 c295 -91 355 -121 368 -183 4
-17 20 -52 36 -78 l28 -46 -15 -109 c-14 -101 -18 -111 -52 -150 -20 -23 -125
-139 -232 -259 l-195 -218 -20 -79 c-19 -74 -24 -82 -89 -149 -39 -38 -68 -71
-65 -74 2 -2 246 -101 541 -221 l537 -217 288 11 c158 6 329 16 379 22 83 11
104 10 270 -16 163 -26 182 -31 213 -57 31 -28 71 -48 92 -48 5 0 9 15 9 34 0
26 10 44 42 79 45 47 100 72 226 100 l62 14 191 -53 191 -54 449 142 450 142
25 43 25 43 -45 54 -46 53 40 133 c22 73 40 138 40 143 0 6 -11 25 -25 43 -14
18 -25 39 -25 46 0 7 23 81 50 164 l51 152 59 16 c52 15 60 20 70 51 6 18 18
39 27 47 9 7 33 36 54 64 52 71 170 144 232 144 l45 0 11 -46 c11 -42 14 -45
39 -40 15 3 83 13 152 21 124 16 314 66 337 88 6 7 13 21 15 32 3 17 -6 21
-70 31 -73 11 -92 22 -92 55 0 16 127 75 226 105 51 15 154 117 167 165 7 27
11 29 57 29 43 0 52 -4 71 -29 15 -21 38 -34 82 -46 34 -9 67 -19 74 -22 10
-4 13 4 11 27 -3 30 0 34 36 46 l39 14 36 -42 c20 -24 54 -62 76 -86 l40 -43
71 7 70 7 97 174 97 174 0 198 0 199 79 74 80 74 -24 41 -23 42 33 43 34 43
-18 72 -19 71 48 26 c33 18 68 27 121 31 41 3 138 23 215 43 l142 37 41 82
c23 46 41 86 41 89 0 3 -27 34 -60 68 -69 72 -79 111 -42 163 29 40 28 43 -10
43 -18 0 -62 13 -97 28 l-64 27 -28 75 c-31 80 -31 91 5 132 19 22 34 27 73
29 42 1 62 -7 155 -58 l108 -59 127 13 c110 11 304 53 330 72 5 3 31 38 60 76
42 58 52 82 62 138 l12 69 -41 54 c-35 46 -40 60 -40 105 0 44 5 58 33 93 20
25 42 70 55 115 12 41 23 75 24 77 2 1 63 32 136 68 72 36 132 69 132 74 -1 4
-5 26 -9 49 -7 38 -6 44 20 69 l29 28 -27 28 c-26 27 -26 29 -13 81 12 52 11
59 -18 148 -19 58 -33 127 -38 181 l-6 87 -57 40 c-31 21 -80 64 -110 94 l-53
55 121 169 c66 93 128 176 138 185 17 15 26 14 112 -13 52 -16 96 -28 97 -26
2 2 14 40 27 85 13 46 27 85 30 88 3 3 41 11 84 16 92 13 108 22 228 139 l90
87 281 15 c154 8 298 12 321 8 32 -6 56 -2 114 19 l74 27 147 -50 146 -50 42
33 c32 25 63 38 126 52 87 19 154 51 154 74 0 7 -14 51 -30 96 -22 58 -29 93
-25 115 7 40 17 46 50 31 23 -10 29 -8 58 19 l32 31 38 -19 37 -20 12 26 c10
22 8 29 -11 49 -31 33 -104 53 -136 36 -20 -11 -27 -9 -58 14 -29 22 -44 26
-102 26 -59 0 -73 -4 -94 -24 -16 -14 -59 -32 -111 -46 -47 -12 -120 -35 -163
-51 -95 -35 -107 -36 -79 -6 19 21 21 28 11 55 -10 29 -15 32 -50 32 -21 0
-57 7 -78 16 -38 15 -46 15 -153 -11 -62 -14 -121 -28 -130 -31 -9 -3 -23 -24
-31 -47 l-13 -42 -66 -9 c-63 -9 -65 -10 -99 -59 -19 -28 -60 -79 -92 -113
l-57 -62 -83 -12 c-45 -7 -91 -16 -102 -20 -11 -4 -90 -65 -175 -135 -184
-152 -179 -149 -254 -165 l-58 -12 -45 44 c-54 52 -122 168 -159 265 -25 70
-26 76 -15 155 7 46 24 114 38 151 l27 68 -21 42 c-29 62 -21 164 18 226 21
32 29 58 29 89 0 40 -2 43 -22 36 -13 -3 -35 -13 -50 -20 -15 -8 -50 -14 -77
-14 -48 0 -50 1 -59 33 -7 23 -5 58 4 108 7 41 13 101 13 135 l1 60 -75 43
c-42 23 -108 67 -147 97 -39 30 -74 54 -77 54 -3 0 -40 -15 -81 -33z"/>
</g>
</svg>
